X: 164
T:Malbay Shuffle
M:C
L:1/8
C:Diarmaid Moynihan
S:Calico : Celanova Square
K:G
d3 G A ~G3 | EG G2 AG ~G2 | d2 cB AG G2 |1 DEGB AG G2 :|2 DEGB AGGA||
~B3 d e ~g3 | egdg e ~g3 | BABd e ~g3 | egdB AGEG| 
~B3 de ~g3| egdg dggd | egdB c2 BG |DEGB AGGB ||
